usr/share/icons/biglinux-icons-material/16/actions/object-flip-horizontal.svg

<svg xmlns="http://www.w3.org/2000/svg" viewBox="0 0 16 16"><path d="M4 2v1h1V2H4zm7 0v1h1V2h-1zM2 4v8h5v-2h2v2h5V4H9v2H7V4H2zm1 1h3v6H3V5zm7 0h3v6h-3V5zm1 1v4h1V6h-1zM7 7h2v2H7V7zm-3 6v1h1v-1H4zm7 0v1h1v-1h-1z" style="fill:currentColor;fill-opacity:1;stroke:none;color:#dedede"/></svg>

<svg xmlns="http://www.w3.org/2000/svg" viewBox="0 0 16 16">
  <defs id="defs3051">
    <style type="text/css" id="current-color-scheme">
      .ColorScheme-Text {
        color:#363636;
      }
      </style>
  </defs>
 <path style="fill:currentColor;fill-opacity:1;stroke:none" 
     d="M 4 2 L 4 3 L 5 3 L 5 2 L 4 2 z M 11 2 L 11 3 L 12 3 L 12 2 L 11 2 z M 2 4 L 2 12 L 7 12 L 7 10 L 9 10 L 9 12 L 14 12 L 14 4 L 9 4 L 9 6 L 7 6 L 7 4 L 2 4 z M 3 5 L 6 5 L 6 11 L 3 11 L 3 5 z M 10 5 L 13 5 L 13 11 L 10 11 L 10 5 z M 11 6 L 11 10 L 12 10 L 12 6 L 11 6 z M 7 7 L 9 7 L 9 9 L 7 9 L 7 7 z M 4 13 L 4 14 L 5 14 L 5 13 L 4 13 z M 11 13 L 11 14 L 12 14 L 12 13 L 11 13 z "
     class="ColorScheme-Text"
     />
</svg>
